<?xml version="1.0" encoding="UTF-8"?>
<map version="1.10" tiledversion="1.12.2" orientation="orthogonal" renderorder="right-down" width="25" height="18" tilewidth="32" tileheight="32" infinite="0" nextlayerid="4" nextobjectid="1">
 <tileset firstgid="1" source="grass.tsx"/>
 <tileset firstgid="101" source="RockTile.tsx"/>
 <layer id="1" name="Tile Layer 1" width="25" height="18">
  <data encoding="csv">
1,2,3,4,5,6,7,8,9,10,1,2,3,4,5,1,2,3,4,5,6,7,8,9,10,
11,12,13,14,15,16,17,18,19,20,11,12,13,14,15,11,12,13,14,15,16,17,18,19,20,
21,22,23,24,25,26,27,28,29,30,21,22,23,24,25,21,22,23,24,25,26,27,28,29,30,
31,32,33,34,35,36,37,38,39,40,31,32,33,34,35,31,32,33,34,35,36,37,38,39,40,
41,42,43,44,45,46,47,48,49,50,41,42,43,44,45,41,42,43,44,45,46,47,48,49,50,
51,52,53,54,55,56,57,58,59,60,51,52,53,54,55,51,52,53,54,55,56,57,58,59,60,
61,62,63,64,65,66,67,68,69,70,61,62,63,64,65,61,62,63,64,65,66,67,68,69,70,
71,72,73,74,75,76,77,78,79,80,71,72,73,74,75,71,72,73,74,75,76,77,78,79,80,
1,2,3,4,5,6,7,8,9,10,6,7,8,9,10,1,2,3,4,5,6,7,8,9,10,
11,12,13,14,15,16,17,18,19,20,16,17,18,19,20,11,12,13,14,15,16,17,18,19,20,
21,22,23,24,25,26,27,28,29,30,26,27,28,29,30,21,22,23,24,25,26,27,28,29,30,
31,32,33,34,35,36,37,38,39,40,36,37,38,39,40,31,32,33,34,35,36,37,38,39,40,
41,42,43,44,45,46,47,48,49,50,46,47,48,49,50,41,42,43,44,45,46,47,48,49,50,
51,52,53,54,55,56,57,58,59,60,56,57,58,59,60,51,52,53,54,55,56,57,58,59,60,
61,62,63,64,65,66,67,68,69,70,66,67,68,69,70,61,62,63,64,65,66,67,68,69,70,
71,72,73,74,75,76,77,78,79,80,76,77,78,79,80,71,72,73,74,75,76,77,78,79,80,
81,82,83,84,85,86,87,88,89,90,86,87,88,89,90,81,82,83,84,85,86,87,88,89,90,
91,92,93,94,95,96,97,98,99,100,96,97,98,99,100,91,92,93,94,95,96,97,98,99,100
</data>
 </layer>
 <layer id="2" name="walls" width="25" height="18">
  <data encoding="csv">
0,0,0,0,0,0,115,0,0,0,0,0,0,0,0,0,0,0,0,0,0,0,0,0,0,
0,0,0,0,0,0,121,0,0,0,0,0,0,0,0,0,0,0,0,0,0,0,0,0,0,
0,0,0,0,0,0,115,0,0,0,0,0,0,0,0,0,0,0,0,0,0,0,0,0,0,
0,0,0,0,0,0,121,0,0,0,0,0,0,0,0,0,0,0,0,0,0,0,0,0,0,
0,0,0,0,0,0,115,0,0,0,0,0,0,0,0,0,0,117,0,0,0,0,0,0,0,
0,0,0,0,0,0,115,0,0,0,0,0,0,0,0,0,0,123,0,0,0,0,0,0,0,
0,0,0,0,0,0,121,0,0,0,0,0,103,104,114,115,116,113,114,115,116,0,0,0,0,
0,0,0,0,0,0,115,0,0,0,0,0,0,0,0,0,0,0,0,0,117,0,0,0,0,
0,0,0,0,0,0,121,0,0,0,0,0,0,0,0,0,0,0,0,0,123,0,0,0,0,
0,0,0,0,0,0,115,0,0,0,0,0,0,0,0,0,0,0,0,0,117,0,0,0,0,
0,0,0,0,0,0,121,0,0,0,0,0,0,0,0,0,0,0,0,0,123,0,0,0,0,
0,0,0,0,0,0,114,114,114,115,114,114,114,115,105,106,0,0,0,0,117,0,0,0,0,
0,0,0,0,0,0,0,0,0,0,0,0,0,0,0,0,0,0,0,0,123,0,0,0,0,
0,0,0,0,0,0,0,0,0,0,0,0,0,0,0,0,0,0,0,0,117,0,0,0,0,
0,0,0,0,0,0,0,0,0,0,0,0,0,0,0,0,0,0,0,0,123,117,0,0,0,
0,0,0,0,0,0,0,0,0,0,0,0,0,0,0,0,0,0,0,0,117,123,0,0,0,
0,0,0,0,0,0,0,0,0,0,0,0,0,0,0,0,0,0,0,0,123,117,0,0,0,
0,0,0,0,0,0,0,0,0,0,0,0,0,0,0,0,0,0,0,0,129,123,0,0,0
</data>
 </layer>
 <objectgroup id="3" name="bone"/>
</map>
