{ "compressionlevel":-1,
 "height":18,
 "infinite":false,
 "layers":[
        {
         "data":[1, 2, 3, 4, 5, 6, 7, 8, 9, 10, 1, 2, 3, 4, 5, 1, 2, 3, 4, 5, 6, 7, 8, 9, 10,
            11, 12, 13, 14, 15, 16, 17, 18, 19, 20, 11, 12, 13, 14, 15, 11, 12, 13, 14, 15, 16, 17, 18, 19, 20,
            21, 22, 23, 24, 25, 26, 27, 28, 29, 30, 21, 22, 23, 24, 25, 21, 22, 23, 24, 25, 26, 27, 28, 29, 30,
            31, 32, 33, 34, 35, 36, 37, 38, 39, 40, 31, 32, 33, 34, 35, 31, 32, 33, 34, 35, 36, 37, 38, 39, 40,
            41, 42, 43, 44, 45, 46, 47, 48, 49, 50, 41, 42, 43, 44, 45, 41, 42, 43, 44, 45, 46, 47, 48, 49, 50,
            51, 52, 53, 54, 55, 56, 57, 58, 59, 60, 51, 52, 53, 54, 55, 51, 52, 53, 54, 55, 56, 57, 58, 59, 60,
            61, 62, 63, 64, 65, 66, 67, 68, 69, 70, 61, 62, 63, 64, 65, 61, 62, 63, 64, 65, 66, 67, 68, 69, 70,
            71, 72, 73, 74, 75, 76, 77, 78, 79, 80, 71, 72, 73, 74, 75, 71, 72, 73, 74, 75, 76, 77, 78, 79, 80,
            1, 2, 3, 4, 5, 6, 7, 8, 9, 10, 6, 7, 8, 9, 10, 1, 2, 3, 4, 5, 6, 7, 8, 9, 10,
            11, 12, 13, 14, 15, 16, 17, 18, 19, 20, 16, 17, 18, 19, 20, 11, 12, 13, 14, 15, 16, 17, 18, 19, 20,
            21, 22, 23, 24, 25, 26, 27, 28, 29, 30, 26, 27, 28, 29, 30, 21, 22, 23, 24, 25, 26, 27, 28, 29, 30,
            31, 32, 33, 34, 35, 36, 37, 38, 39, 40, 36, 37, 38, 39, 40, 31, 32, 33, 34, 35, 36, 37, 38, 39, 40,
            41, 42, 43, 44, 45, 46, 47, 48, 49, 50, 46, 47, 48, 49, 50, 41, 42, 43, 44, 45, 46, 47, 48, 49, 50,
            51, 52, 53, 54, 55, 56, 57, 58, 59, 60, 56, 57, 58, 59, 60, 51, 52, 53, 54, 55, 56, 57, 58, 59, 60,
            61, 62, 63, 64, 65, 66, 67, 68, 69, 70, 66, 67, 68, 69, 70, 61, 62, 63, 64, 65, 66, 67, 68, 69, 70,
            71, 72, 73, 74, 75, 76, 77, 78, 79, 80, 76, 77, 78, 79, 80, 71, 72, 73, 74, 75, 76, 77, 78, 79, 80,
            81, 82, 83, 84, 85, 86, 87, 88, 89, 90, 86, 87, 88, 89, 90, 81, 82, 83, 84, 85, 86, 87, 88, 89, 90,
            91, 92, 93, 94, 95, 96, 97, 98, 99, 100, 96, 97, 98, 99, 100, 91, 92, 93, 94, 95, 96, 97, 98, 99, 100],
         "height":18,
         "id":1,
         "name":"Ground",
         "opacity":1,
         "type":"tilelayer",
         "visible":true,
         "width":25,
         "x":0,
         "y":0
        }, 
        {
         "data":[0, 0, 0, 0, 0, 0, 115, 0, 0, 0, 0, 0, 0, 0, 0, 0, 0, 0, 0, 0, 0, 0, 0, 0, 0,
            0, 0, 0, 0, 0, 0, 121, 0, 0, 0, 0, 0, 0, 0, 0, 0, 0, 0, 0, 0, 0, 0, 0, 0, 0,
            0, 0, 0, 0, 0, 0, 115, 0, 0, 0, 0, 0, 0, 0, 0, 0, 0, 0, 0, 0, 0, 0, 0, 0, 0,
            0, 0, 0, 0, 0, 0, 121, 0, 0, 0, 0, 0, 0, 0, 0, 0, 0, 0, 0, 0, 0, 0, 0, 0, 0,
            0, 0, 0, 0, 0, 0, 115, 0, 0, 0, 0, 0, 0, 0, 0, 0, 0, 117, 0, 0, 0, 0, 0, 0, 0,
            0, 0, 0, 0, 0, 0, 115, 0, 0, 0, 0, 0, 0, 0, 0, 0, 0, 123, 0, 0, 0, 0, 0, 0, 0,
            0, 0, 0, 0, 0, 0, 121, 0, 0, 0, 0, 0, 103, 104, 114, 115, 116, 113, 114, 115, 116, 0, 0, 0, 0,
            0, 0, 0, 0, 0, 0, 115, 0, 0, 0, 0, 0, 0, 0, 0, 0, 0, 0, 0, 0, 117, 0, 0, 0, 0,
            0, 0, 0, 0, 0, 0, 121, 0, 0, 0, 0, 0, 0, 0, 0, 0, 0, 0, 0, 0, 123, 0, 0, 0, 0,
            0, 0, 0, 0, 0, 0, 115, 0, 0, 0, 0, 0, 0, 0, 0, 0, 0, 0, 0, 0, 117, 0, 0, 0, 0,
            0, 0, 0, 0, 0, 0, 121, 0, 0, 0, 0, 0, 0, 0, 0, 0, 0, 0, 0, 0, 123, 0, 0, 0, 0,
            0, 0, 0, 0, 0, 0, 114, 114, 114, 115, 114, 114, 114, 115, 105, 106, 0, 0, 0, 0, 117, 0, 0, 0, 0,
            0, 0, 0, 0, 0, 0, 0, 0, 0, 0, 0, 0, 0, 0, 0, 0, 0, 0, 0, 0, 123, 0, 0, 0, 0,
            0, 0, 0, 0, 0, 0, 0, 0, 0, 0, 0, 0, 0, 0, 0, 0, 0, 0, 0, 0, 117, 0, 0, 0, 0,
            0, 0, 0, 0, 0, 0, 0, 0, 0, 0, 0, 0, 0, 0, 0, 0, 0, 0, 0, 0, 123, 117, 0, 0, 0,
            0, 0, 0, 0, 0, 0, 0, 0, 0, 0, 0, 0, 0, 0, 0, 0, 0, 0, 0, 0, 117, 123, 0, 0, 0,
            0, 0, 0, 0, 0, 0, 0, 0, 0, 0, 0, 0, 0, 0, 0, 0, 0, 0, 0, 0, 123, 117, 0, 0, 0,
            0, 0, 0, 0, 0, 0, 0, 0, 0, 0, 0, 0, 0, 0, 0, 0, 0, 0, 0, 0, 129, 123, 0, 0, 0],
         "height":18,
         "id":2,
         "name":"walls",
         "opacity":1,
         "type":"tilelayer",
         "visible":true,
         "width":25,
         "x":0,
         "y":0
        }, 
        {
         "draworder":"topdown",
         "id":3,
         "name":"bone",
         "objects":[],
         "opacity":1,
         "type":"objectgroup",
         "visible":true,
         "x":0,
         "y":0
        }],
 "nextlayerid":4,
 "nextobjectid":1,
 "orientation":"orthogonal",
 "renderorder":"right-down",
 "tiledversion":"1.12.2",
 "tileheight":32,
 "tilesets":[
        {
         "columns":10,
         "firstgid":1,
         "image":"..\/assets\/tiles\/grass.jpg",
         "imageheight":320,
         "imagewidth":320,
         "margin":0,
         "name":"grass",
         "spacing":0,
         "tilecount":100,
         "tileheight":32,
         "tilewidth":32
        }, 
        {
         "columns":6,
         "firstgid":101,
         "image":"..\/assets\/tiles\/RockTile.png",
         "imageheight":192,
         "imagewidth":192,
         "margin":0,
         "name":"RockTile",
         "spacing":0,
         "tilecount":36,
         "tileheight":32,
         "tiles":[
                {
                 "id":2,
                 "objectgroup":
                    {
                     "draworder":"index",
                     "id":2,
                     "name":"",
                     "objects":[
                            {
                             "height":0,
                             "id":1,
                             "name":"",
                             "opacity":1,
                             "rotation":0,
                             "type":"",
                             "visible":true,
                             "width":0,
                             "x":10.4290689269991,
                             "y":10.0505946514226
                            }, 
                            {
                             "height":0,
                             "id":2,
                             "name":"",
                             "opacity":1,
                             "rotation":0,
                             "type":"",
                             "visible":true,
                             "width":0,
                             "x":21.40482291872,
                             "y":10.0085419541363
                            }, 
                            {
                             "height":0,
                             "id":3,
                             "name":"",
                             "opacity":1,
                             "rotation":0,
                             "type":"",
                             "visible":true,
                             "width":0.0420526972862874,
                             "x":21.9515079834418,
                             "y":20.9001905512846
                            }, 
                            {
                             "height":0,
                             "id":4,
                             "name":"",
                             "opacity":1,
                             "rotation":0,
                             "type":"",
                             "visible":true,
                             "width":0,
                             "x":9.41980419212826,
                             "y":22.3720349563046
                            }, 
                            {
                             "height":0,
                             "id":5,
                             "name":"",
                             "opacity":1,
                             "rotation":0,
                             "type":"",
                             "visible":true,
                             "width":0,
                             "x":24.0961955450424,
                             "y":22.2038241671595
                            }],
                     "opacity":1,
                     "type":"objectgroup",
                     "visible":true,
                     "x":0,
                     "y":0
                    }
                }, 
                {
                 "id":5,
                 "objectgroup":
                    {
                     "draworder":"index",
                     "id":2,
                     "name":"",
                     "objects":[
                            {
                             "height":0,
                             "id":1,
                             "name":"",
                             "opacity":1,
                             "rotation":0,
                             "type":"",
                             "visible":true,
                             "width":0,
                             "x":10.2188054405677,
                             "y":9.75622577041856
                            }, 
                            {
                             "height":0,
                             "id":2,
                             "name":"",
                             "opacity":1,
                             "rotation":0,
                             "type":"",
                             "visible":true,
                             "width":0,
                             "x":19.8909258164137,
                             "y":9.9244365595637
                            }, 
                            {
                             "height":0,
                             "id":3,
                             "name":"",
                             "opacity":1,
                             "rotation":0,
                             "type":"",
                             "visible":true,
                             "width":0,
                             "x":20.6899270648531,
                             "y":19.7647677245548
                            }, 
                            {
                             "height":0,
                             "id":4,
                             "name":"",
                             "opacity":1,
                             "rotation":0,
                             "type":"",
                             "visible":true,
                             "width":0,
                             "x":10.9757539917209,
                             "y":20.521716275708
                            }],
                     "opacity":1,
                     "type":"objectgroup",
                     "visible":true,
                     "x":0,
                     "y":0
                    }
                }, 
                {
                 "id":7,
                 "objectgroup":
                    {
                     "draworder":"index",
                     "id":2,
                     "name":"",
                     "objects":[
                            {
                             "height":0.420526972862868,
                             "id":1,
                             "name":"",
                             "opacity":1,
                             "rotation":0,
                             "type":"",
                             "visible":true,
                             "width":6.18174650108417,
                             "x":15.6015506932124,
                             "y":11.9009133320192
                            }, 
                            {
                             "height":0,
                             "id":2,
                             "name":"",
                             "opacity":1,
                             "rotation":0,
                             "type":"",
                             "visible":true,
                             "width":0,
                             "x":18.9657664761154,
                             "y":17.8723963466719
                            }, 
                            {
                             "height":0,
                             "id":3,
                             "name":"",
                             "opacity":1,
                             "rotation":0,
                             "type":"",
                             "visible":true,
                             "width":0,
                             "x":21.699191799724,
                             "y":20.3114527892766
                            }, 
                            {
                             "height":0,
                             "id":4,
                             "name":"",
                             "opacity":1,
                             "rotation":0,
                             "type":"",
                             "visible":true,
                             "width":0,
                             "x":10.7234378080032,
                             "y":15.4753926013536
                            }, 
                            {
                             "height":0,
                             "id":5,
                             "name":"",
                             "opacity":1,
                             "rotation":0,
                             "type":"",
                             "visible":true,
                             "width":0,
                             "x":19.3021880544057,
                             "y":12.1532295157369
                            }, 
                            {
                             "height":0,
                             "id":6,
                             "name":"",
                             "opacity":1,
                             "rotation":0,
                             "type":"",
                             "visible":true,
                             "width":0,
                             "x":21.993560680728,
                             "y":12.1111768184506
                            }],
                     "opacity":1,
                     "type":"objectgroup",
                     "visible":true,
                     "x":0,
                     "y":0
                    }
                }, 
                {
                 "id":8,
                 "objectgroup":
                    {
                     "draworder":"index",
                     "id":2,
                     "name":"",
                     "objects":[
                            {
                             "height":0,
                             "id":1,
                             "name":"",
                             "opacity":1,
                             "rotation":0,
                             "type":"",
                             "visible":true,
                             "width":0,
                             "x":10.1767527432814,
                             "y":11.4803863591563
                            }, 
                            {
                             "height":0,
                             "id":2,
                             "name":"",
                             "opacity":1,
                             "rotation":0,
                             "type":"",
                             "visible":true,
                             "width":0,
                             "x":22.0356133780143,
                             "y":11.732702542874
                            }, 
                            {
                             "height":0,
                             "id":3,
                             "name":"",
                             "opacity":1,
                             "rotation":0,
                             "type":"",
                             "visible":true,
                             "width":0,
                             "x":21.8674025888692,
                             "y":20.9001905512846
                            }, 
                            {
                             "height":0,
                             "id":4,
                             "name":"",
                             "opacity":1,
                             "rotation":0,
                             "type":"",
                             "visible":true,
                             "width":0,
                             "x":10.0926473487089,
                             "y":20.6478743675669
                            }],
                     "opacity":1,
                     "type":"objectgroup",
                     "visible":true,
                     "x":0,
                     "y":0
                    }
                }, 
                {
                 "id":9,
                 "objectgroup":
                    {
                     "draworder":"index",
                     "id":2,
                     "name":"",
                     "objects":[
                            {
                             "height":0,
                             "id":1,
                             "name":"",
                             "opacity":1,
                             "rotation":0,
                             "type":"",
                             "visible":true,
                             "width":0,
                             "x":9.9244365595637,
                             "y":11.3121755700112
                            }, 
                            {
                             "height":0.0420526972862856,
                             "id":2,
                             "name":"",
                             "opacity":1,
                             "rotation":0,
                             "type":"",
                             "visible":true,
                             "width":0,
                             "x":20.0170839082726,
                             "y":14.2979170773375
                            }, 
                            {
                             "height":0,
                             "id":3,
                             "name":"",
                             "opacity":1,
                             "rotation":0,
                             "type":"",
                             "visible":true,
                             "width":0.126158091858859,
                             "x":19.7227150272685,
                             "y":19.5545042381234
                            }, 
                            {
                             "height":0,
                             "id":4,
                             "name":"",
                             "opacity":1,
                             "rotation":0,
                             "type":"",
                             "visible":true,
                             "width":0,
                             "x":10.4290689269991,
                             "y":19.5124515408371
                            }],
                     "opacity":1,
                     "type":"objectgroup",
                     "visible":true,
                     "x":0,
                     "y":0
                    }
                }, 
                {
                 "id":12,
                 "objectgroup":
                    {
                     "draworder":"index",
                     "id":2,
                     "name":"",
                     "objects":[
                            {
                             "height":0,
                             "id":1,
                             "name":"",
                             "opacity":1,
                             "rotation":0,
                             "type":"",
                             "visible":true,
                             "width":0,
                             "x":9.54596228398712,
                             "y":10.5131743215717
                            }, 
                            {
                             "height":0,
                             "id":2,
                             "name":"",
                             "opacity":1,
                             "rotation":0,
                             "type":"",
                             "visible":true,
                             "width":0,
                             "x":23.9700374531835,
                             "y":8.95722452197911
                            }, 
                            {
                             "height":0.378474275576583,
                             "id":3,
                             "name":"",
                             "opacity":1,
                             "rotation":0,
                             "type":"",
                             "visible":true,
                             "width":0.0841053945725712,
                             "x":22.2458768644458,
                             "y":21.7832971942966
                            }, 
                            {
                             "height":0,
                             "id":4,
                             "name":"",
                             "opacity":1,
                             "rotation":0,
                             "type":"",
                             "visible":true,
                             "width":0.0420526972862874,
                             "x":11.1860174781523,
                             "y":22.2038241671595
                            }, 
                            {
                             "height":0,
                             "id":5,
                             "name":"",
                             "opacity":1,
                             "rotation":0,
                             "type":"",
                             "visible":true,
                             "width":0,
                             "x":10.5131743215717,
                             "y":22.9607727183126
                            }, 
                            {
                             "height":0,
                             "id":6,
                             "name":"",
                             "opacity":1,
                             "rotation":0,
                             "type":"",
                             "visible":true,
                             "width":0,
                             "x":24.6008279124778,
                             "y":22.4561403508772
                            }],
                     "opacity":1,
                     "type":"objectgroup",
                     "visible":true,
                     "x":0,
                     "y":0
                    }
                }, 
                {
                 "id":13,
                 "objectgroup":
                    {
                     "draworder":"index",
                     "id":2,
                     "name":"",
                     "objects":[
                            {
                             "height":0,
                             "id":1,
                             "name":"",
                             "opacity":1,
                             "rotation":0,
                             "type":"",
                             "visible":true,
                             "width":0,
                             "x":10.0926473487089,
                             "y":9.96648925684999
                            }, 
                            {
                             "height":0,
                             "id":2,
                             "name":"",
                             "opacity":1,
                             "rotation":0,
                             "type":"",
                             "visible":true,
                             "width":0,
                             "x":21.8674025888692,
                             "y":10.3449635324266
                            }, 
                            {
                             "height":0,
                             "id":3,
                             "name":"",
                             "opacity":1,
                             "rotation":0,
                             "type":"",
                             "visible":true,
                             "width":0,
                             "x":22.3299822590183,
                             "y":22.4981930481635
                            }, 
                            {
                             "height":0.0420526972862874,
                             "id":4,
                             "name":"",
                             "opacity":1,
                             "rotation":0,
                             "type":"",
                             "visible":true,
                             "width":0.0420526972862856,
                             "x":10.1767527432814,
                             "y":21.8674025888692
                            }],
                     "opacity":1,
                     "type":"objectgroup",
                     "visible":true,
                     "x":0,
                     "y":0
                    }
                }, 
                {
                 "id":14,
                 "objectgroup":
                    {
                     "draworder":"index",
                     "id":2,
                     "name":"",
                     "objects":[
                            {
                             "height":0,
                             "id":1,
                             "name":"",
                             "opacity":1,
                             "rotation":0,
                             "type":"",
                             "visible":true,
                             "width":0,
                             "x":10.0085419541363,
                             "y":10.0505946514226
                            }, 
                            {
                             "height":0,
                             "id":2,
                             "name":"",
                             "opacity":1,
                             "rotation":0,
                             "type":"",
                             "visible":true,
                             "width":0,
                             "x":21.7832971942966,
                             "y":9.9244365595637
                            }, 
                            {
                             "height":0,
                             "id":3,
                             "name":"",
                             "opacity":1,
                             "rotation":0,
                             "type":"",
                             "visible":true,
                             "width":0,
                             "x":22.7084565345949,
                             "y":21.9515079834418
                            }, 
                            {
                             "height":0.0420526972862838,
                             "id":4,
                             "name":"",
                             "opacity":1,
                             "rotation":0,
                             "type":"",
                             "visible":true,
                             "width":0,
                             "x":10.1347000459951,
                             "y":21.6571391024377
                            }],
                     "opacity":1,
                     "type":"objectgroup",
                     "visible":true,
                     "x":0,
                     "y":0
                    }
                }, 
                {
                 "id":15,
                 "objectgroup":
                    {
                     "draworder":"index",
                     "id":2,
                     "name":"",
                     "objects":[
                            {
                             "height":0,
                             "id":1,
                             "name":"",
                             "opacity":1,
                             "rotation":0,
                             "type":"",
                             "visible":true,
                             "width":0,
                             "x":10.260858137854,
                             "y":10.3449635324266
                            }, 
                            {
                             "height":0.168210789145148,
                             "id":2,
                             "name":"",
                             "opacity":1,
                             "rotation":0,
                             "type":"",
                             "visible":true,
                             "width":0.0420526972862874,
                             "x":22.2458768644458,
                             "y":9.9244365595637
                            }, 
                            {
                             "height":0,
                             "id":3,
                             "name":"",
                             "opacity":1,
                             "rotation":0,
                             "type":"",
                             "visible":true,
                             "width":0,
                             "x":21.3627702214337,
                             "y":22.9187200210264
                            }, 
                            {
                             "height":0,
                             "id":4,
                             "name":"",
                             "opacity":1,
                             "rotation":0,
                             "type":"",
                             "visible":true,
                             "width":0,
                             "x":9.2936461002694,
                             "y":22.9187200210264
                            }, 
                            {
                             "height":0,
                             "id":5,
                             "name":"",
                             "opacity":1,
                             "rotation":0,
                             "type":"",
                             "visible":true,
                             "width":0,
                             "x":22.3720349563046,
                             "y":10.4711216242854
                            }],
                     "opacity":1,
                     "type":"objectgroup",
                     "visible":true,
                     "x":0,
                     "y":0
                    }
                }, 
                {
                 "id":16,
                 "objectgroup":
                    {
                     "draworder":"index",
                     "id":2,
                     "name":"",
                     "objects":[
                            {
                             "height":0,
                             "id":1,
                             "name":"",
                             "opacity":1,
                             "rotation":0,
                             "type":"",
                             "visible":true,
                             "width":0,
                             "x":10.8916485971483,
                             "y":10.3449635324266
                            }, 
                            {
                             "height":0,
                             "id":2,
                             "name":"",
                             "opacity":1,
                             "rotation":0,
                             "type":"",
                             "visible":true,
                             "width":0,
                             "x":22.0776660753006,
                             "y":10.3029108351403
                            }, 
                            {
                             "height":0,
                             "id":3,
                             "name":"",
                             "opacity":1,
                             "rotation":0,
                             "type":"",
                             "visible":true,
                             "width":0,
                             "x":22.1617714698732,
                             "y":21.4468756160063
                            }, 
                            {
                             "height":0,
                             "id":4,
                             "name":"",
                             "opacity":1,
                             "rotation":0,
                             "type":"",
                             "visible":true,
                             "width":0,
                             "x":11.5644917537289,
                             "y":21.9094552861555
                            }],
                     "opacity":1,
                     "type":"objectgroup",
                     "visible":true,
                     "x":0,
                     "y":0
                    }
                }, 
                {
                 "id":18,
                 "objectgroup":
                    {
                     "draworder":"index",
                     "id":2,
                     "name":"",
                     "objects":[
                            {
                             "height":0,
                             "id":1,
                             "name":"",
                             "opacity":1,
                             "rotation":0,
                             "type":"",
                             "visible":true,
                             "width":0,
                             "x":10.5131743215717,
                             "y":9.79827846770484
                            }, 
                            {
                             "height":0.0420526972862874,
                             "id":2,
                             "name":"",
                             "opacity":1,
                             "rotation":0,
                             "type":"",
                             "visible":true,
                             "width":0,
                             "x":22.287929561732,
                             "y":9.75622577041856
                            }, 
                            {
                             "height":0,
                             "id":3,
                             "name":"",
                             "opacity":1,
                             "rotation":0,
                             "type":"",
                             "visible":true,
                             "width":0,
                             "x":22.5402457454498,
                             "y":16.7369735199422
                            }, 
                            {
                             "height":0.0420526972862874,
                             "id":4,
                             "name":"",
                             "opacity":1,
                             "rotation":0,
                             "type":"",
                             "visible":true,
                             "width":0,
                             "x":10.9757539917209,
                             "y":22.0356133780143
                            }, 
                            {
                             "height":0,
                             "id":5,
                             "name":"",
                             "opacity":1,
                             "rotation":0,
                             "type":"",
                             "visible":true,
                             "width":0.0420526972862874,
                             "x":23.7177212694658,
                             "y":21.110454037716
                            }, 
                            {
                             "height":0.0841053945725747,
                             "id":6,
                             "name":"",
                             "opacity":1,
                             "rotation":0,
                             "type":"",
                             "visible":true,
                             "width":0,
                             "x":10.9757539917209,
                             "y":20.521716275708
                            }, 
                            {
                             "height":0,
                             "id":7,
                             "name":"",
                             "opacity":1,
                             "rotation":0,
                             "type":"",
                             "visible":true,
                             "width":0,
                             "x":21.0263486431434,
                             "y":8.36848675997109
                            }, 
                            {
                             "height":0.0420526972862874,
                             "id":8,
                             "name":"",
                             "opacity":1,
                             "rotation":0,
                             "type":"",
                             "visible":true,
                             "width":0,
                             "x":10.6393324134306,
                             "y":20.9001905512846
                            }, 
                            {
                             "height":0,
                             "id":9,
                             "name":"",
                             "opacity":1,
                             "rotation":0,
                             "type":"",
                             "visible":true,
                             "width":0,
                             "x":15.6436033904987,
                             "y":23.7177212694658
                            }, 
                            {
                             "height":0,
                             "id":10,
                             "name":"",
                             "opacity":1,
                             "rotation":0,
                             "type":"",
                             "visible":true,
                             "width":0,
                             "x":24.9793021880544,
                             "y":23.5915631776069
                            }],
                     "opacity":1,
                     "type":"objectgroup",
                     "visible":true,
                     "x":0,
                     "y":0
                    }
                }, 
                {
                 "id":20,
                 "objectgroup":
                    {
                     "draworder":"index",
                     "id":2,
                     "name":"",
                     "objects":[
                            {
                             "height":0,
                             "id":1,
                             "name":"",
                             "opacity":1,
                             "rotation":0,
                             "type":"",
                             "visible":true,
                             "width":0,
                             "x":10.3449635324266,
                             "y":9.9244365595637
                            }, 
                            {
                             "height":0,
                             "id":2,
                             "name":"",
                             "opacity":1,
                             "rotation":0,
                             "type":"",
                             "visible":true,
                             "width":0,
                             "x":22.287929561732,
                             "y":10.2188054405677
                            }, 
                            {
                             "height":0,
                             "id":3,
                             "name":"",
                             "opacity":1,
                             "rotation":0,
                             "type":"",
                             "visible":true,
                             "width":0,
                             "x":21.9094552861555,
                             "y":21.4889283132926
                            }, 
                            {
                             "height":0,
                             "id":4,
                             "name":"",
                             "opacity":1,
                             "rotation":0,
                             "type":"",
                             "visible":true,
                             "width":0,
                             "x":10.4290689269991,
                             "y":22.0356133780143
                            }],
                     "opacity":1,
                     "type":"objectgroup",
                     "visible":true,
                     "x":0,
                     "y":0
                    }
                }, 
                {
                 "id":21,
                 "objectgroup":
                    {
                     "draworder":"index",
                     "id":2,
                     "name":"",
                     "objects":[
                            {
                             "height":0,
                             "id":1,
                             "name":"",
                             "opacity":1,
                             "rotation":0,
                             "type":"",
                             "visible":true,
                             "width":0,
                             "x":9.79827846770484,
                             "y":9.84033116499113
                            }, 
                            {
                             "height":0,
                             "id":2,
                             "name":"",
                             "opacity":1,
                             "rotation":0,
                             "type":"",
                             "visible":true,
                             "width":0,
                             "x":20.3535054865629,
                             "y":10.3449635324266
                            }, 
                            {
                             "height":0,
                             "id":3,
                             "name":"",
                             "opacity":1,
                             "rotation":0,
                             "type":"",
                             "visible":true,
                             "width":0,
                             "x":20.9842959458572,
                             "y":21.2366121295749
                            }, 
                            {
                             "height":0.0841053945725712,
                             "id":4,
                             "name":"",
                             "opacity":1,
                             "rotation":0,
                             "type":"",
                             "visible":true,
                             "width":0.756948551153165,
                             "x":11.9850187265918,
                             "y":21.6150864051515
                            }, 
                            {
                             "height":0.0420526972862874,
                             "id":5,
                             "name":"",
                             "opacity":1,
                             "rotation":0,
                             "type":"",
                             "visible":true,
                             "width":0,
                             "x":8.03206518168079,
                             "y":22.2458768644458
                            }, 
                            {
                             "height":0,
                             "id":6,
                             "name":"",
                             "opacity":1,
                             "rotation":0,
                             "type":"",
                             "visible":true,
                             "width":0,
                             "x":5.80327222550759,
                             "y":22.1197187725869
                            }],
                     "opacity":1,
                     "type":"objectgroup",
                     "visible":true,
                     "x":0,
                     "y":0
                    }
                }, 
                {
                 "id":22,
                 "objectgroup":
                    {
                     "draworder":"index",
                     "id":2,
                     "name":"",
                     "objects":[
                            {
                             "height":0,
                             "id":1,
                             "name":"",
                             "opacity":1,
                             "rotation":0,
                             "type":"",
                             "visible":true,
                             "width":0.0420526972862874,
                             "x":10.7654905052894,
                             "y":10.1767527432814
                            }, 
                            {
                             "height":0,
                             "id":2,
                             "name":"",
                             "opacity":1,
                             "rotation":0,
                             "type":"",
                             "visible":true,
                             "width":0,
                             "x":11.4803863591563,
                             "y":9.84033116499113
                            }, 
                            {
                             "height":0,
                             "id":3,
                             "name":"",
                             "opacity":1,
                             "rotation":0,
                             "type":"",
                             "visible":true,
                             "width":0,
                             "x":20.0591366055588,
                             "y":8.99927721926539
                            }, 
                            {
                             "height":0,
                             "id":4,
                             "name":"",
                             "opacity":1,
                             "rotation":0,
                             "type":"",
                             "visible":true,
                             "width":0,
                             "x":21.1945594322886,
                             "y":23.9700374531835
                            }, 
                            {
                             "height":0,
                             "id":5,
                             "name":"",
                             "opacity":1,
                             "rotation":0,
                             "type":"",
                             "visible":true,
                             "width":0.0841053945725738,
                             "x":7.99001248439451,
                             "y":22.1197187725869
                            }, 
                            {
                             "height":0,
                             "id":6,
                             "name":"",
                             "opacity":1,
                             "rotation":0,
                             "type":"",
                             "visible":true,
                             "width":0,
                             "x":12.4475983967409,
                             "y":24.0961955450424
                            }],
                     "opacity":1,
                     "type":"objectgroup",
                     "visible":true,
                     "x":0,
                     "y":0
                    }
                }, 
                {
                 "id":24,
                 "objectgroup":
                    {
                     "draworder":"index",
                     "id":2,
                     "name":"",
                     "objects":[
                            {
                             "height":0,
                             "id":1,
                             "name":"",
                             "opacity":1,
                             "rotation":0,
                             "type":"",
                             "visible":true,
                             "width":0,
                             "x":11.0178066890072,
                             "y":9.88238386227742
                            }, 
                            {
                             "height":0,
                             "id":2,
                             "name":"",
                             "opacity":1,
                             "rotation":0,
                             "type":"",
                             "visible":true,
                             "width":0,
                             "x":21.5309810105789,
                             "y":9.54596228398712
                            }, 
                            {
                             "height":0,
                             "id":3,
                             "name":"",
                             "opacity":1,
                             "rotation":0,
                             "type":"",
                             "visible":true,
                             "width":0,
                             "x":21.9515079834418,
                             "y":23.2551415993166
                            }, 
                            {
                             "height":0,
                             "id":4,
                             "name":"",
                             "opacity":1,
                             "rotation":0,
                             "type":"",
                             "visible":true,
                             "width":0,
                             "x":9.46185688941455,
                             "y":22.8766673237401
                            }],
                     "opacity":1,
                     "type":"objectgroup",
                     "visible":true,
                     "x":0,
                     "y":0
                    }
                }, 
                {
                 "id":25,
                 "objectgroup":
                    {
                     "draworder":"index",
                     "id":2,
                     "name":"",
                     "objects":[
                            {
                             "height":0,
                             "id":1,
                             "name":"",
                             "opacity":1,
                             "rotation":0,
                             "type":"",
                             "visible":true,
                             "width":0,
                             "x":10.0505946514226,
                             "y":9.88238386227742
                            }, 
                            {
                             "height":0,
                             "id":2,
                             "name":"",
                             "opacity":1,
                             "rotation":0,
                             "type":"",
                             "visible":true,
                             "width":0,
                             "x":22.0356133780143,
                             "y":9.71417307313227
                            }, 
                            {
                             "height":0,
                             "id":3,
                             "name":"",
                             "opacity":1,
                             "rotation":0,
                             "type":"",
                             "visible":true,
                             "width":0,
                             "x":22.9607727183126,
                             "y":20.7319797621394
                            }, 
                            {
                             "height":0,
                             "id":4,
                             "name":"",
                             "opacity":1,
                             "rotation":0,
                             "type":"",
                             "visible":true,
                             "width":0,
                             "x":9.20954070569683,
                             "y":21.7412444970103
                            }],
                     "opacity":1,
                     "type":"objectgroup",
                     "visible":true,
                     "x":0,
                     "y":0
                    }
                }, 
                {
                 "id":26,
                 "objectgroup":
                    {
                     "draworder":"index",
                     "id":2,
                     "name":"",
                     "objects":[
                            {
                             "height":0,
                             "id":1,
                             "name":"",
                             "opacity":1,
                             "rotation":0,
                             "type":"",
                             "visible":true,
                             "width":0,
                             "x":10.0505946514226,
                             "y":10.1767527432814
                            }, 
                            {
                             "height":0,
                             "id":2,
                             "name":"",
                             "opacity":1,
                             "rotation":0,
                             "type":"",
                             "visible":true,
                             "width":0,
                             "x":22.0776660753006,
                             "y":10.260858137854
                            }, 
                            {
                             "height":0,
                             "id":3,
                             "name":"",
                             "opacity":1,
                             "rotation":0,
                             "type":"",
                             "visible":true,
                             "width":0,
                             "x":21.699191799724,
                             "y":21.9094552861555
                            }, 
                            {
                             "height":0,
                             "id":4,
                             "name":"",
                             "opacity":1,
                             "rotation":0,
                             "type":"",
                             "visible":true,
                             "width":0,
                             "x":10.555227018858,
                             "y":22.7925619291675
                            }],
                     "opacity":1,
                     "type":"objectgroup",
                     "visible":true,
                     "x":0,
                     "y":0
                    }
                }, 
                {
                 "id":27,
                 "objectgroup":
                    {
                     "draworder":"index",
                     "id":2,
                     "name":"",
                     "objects":[
                            {
                             "height":0,
                             "id":1,
                             "name":"",
                             "opacity":1,
                             "rotation":0,
                             "type":"",
                             "visible":true,
                             "width":0,
                             "x":9.9244365595637,
                             "y":10.0926473487089
                            }, 
                            {
                             "height":0,
                             "id":2,
                             "name":"",
                             "opacity":1,
                             "rotation":0,
                             "type":"",
                             "visible":true,
                             "width":0,
                             "x":21.3207175241475,
                             "y":10.4711216242854
                            }, 
                            {
                             "height":0,
                             "id":3,
                             "name":"",
                             "opacity":1,
                             "rotation":0,
                             "type":"",
                             "visible":true,
                             "width":0,
                             "x":20.521716275708,
                             "y":20.6478743675669
                            }, 
                            {
                             "height":0,
                             "id":4,
                             "name":"",
                             "opacity":1,
                             "rotation":0,
                             "type":"",
                             "visible":true,
                             "width":0,
                             "x":11.6906498455878,
                             "y":21.3627702214337
                            }],
                     "opacity":1,
                     "type":"objectgroup",
                     "visible":true,
                     "x":0,
                     "y":0
                    }
                }, 
                {
                 "id":28,
                 "objectgroup":
                    {
                     "draworder":"index",
                     "id":2,
                     "name":"",
                     "objects":[
                            {
                             "height":0,
                             "id":1,
                             "name":"",
                             "opacity":1,
                             "rotation":0,
                             "type":"",
                             "visible":true,
                             "width":0,
                             "x":10.8916485971483,
                             "y":9.75622577041856
                            }, 
                            {
                             "height":0,
                             "id":2,
                             "name":"",
                             "opacity":1,
                             "rotation":0,
                             "type":"",
                             "visible":true,
                             "width":0.0420526972862874,
                             "x":21.9515079834418,
                             "y":9.88238386227742
                            }, 
                            {
                             "height":0,
                             "id":3,
                             "name":"",
                             "opacity":1,
                             "rotation":0,
                             "type":"",
                             "visible":true,
                             "width":0,
                             "x":22.0776660753006,
                             "y":10.849595899862
                            }, 
                            {
                             "height":0,
                             "id":4,
                             "name":"",
                             "opacity":1,
                             "rotation":0,
                             "type":"",
                             "visible":true,
                             "width":0.0420526972862874,
                             "x":21.6150864051515,
                             "y":20.9422432485709
                            }, 
                            {
                             "height":0,
                             "id":5,
                             "name":"",
                             "opacity":1,
                             "rotation":0,
                             "type":"",
                             "visible":true,
                             "width":0,
                             "x":12.7419672777449,
                             "y":20.3114527892766
                            }, 
                            {
                             "height":0,
                             "id":6,
                             "name":"",
                             "opacity":1,
                             "rotation":0,
                             "type":"",
                             "visible":true,
                             "width":0,
                             "x":13.0783888560352,
                             "y":22.0776660753006
                            }, 
                            {
                             "height":0,
                             "id":7,
                             "name":"",
                             "opacity":1,
                             "rotation":0,
                             "type":"",
                             "visible":true,
                             "width":0,
                             "x":20.6478743675669,
                             "y":21.7412444970103
                            }],
                     "opacity":1,
                     "type":"objectgroup",
                     "visible":true,
                     "x":0,
                     "y":0
                    }
                }],
         "tilewidth":32
        }],
 "tilewidth":32,
 "type":"map",
 "version":"1.10",
 "width":25
}